X:18
T:Pride of Petravore, The
T:Eileen Oge, the Pride of Petravore
R:hornpipe
C:William Percy French (1854-1920)
D:De Dannan: Ballroom
Z:id:hn-hornpipe-18
M:C|
K:Em
B,2|EDEF GFGA|BcBA G2E2|D2DE FEFG|ABAG FEDF|
EDEF GFGA|BcBA G2GA|B2Bc BAFG|E2ED E2:|
|:z2|[e2c2][e2c2] [e3c3]e|dBGA B3c|BAFE FGAB|AGED E2 (3FGA|
Bdef g2ge|dBGA B3A|B2Bc BAFG|E2ED E2:|
<end>
<start>
